X:23
T: The Lass of Livingston 
N: HA023
O: Europa, Mitteleuropa, Deutschland
N: Vorschläge
M: 2/2
L: 1/16
K: Cm
_B,2C2 | E6F2G4c4 | _B2G2=B2c2_B2G2
F2E2 | G4F4F4E2F2 | G4F4F4
E2C2 | _B,2C2E2F2G6c2 | _BG3F2E2F4
G2=B2 | c4C4C4_B,2C2 | E4C4C4
_B2c2 | e6f2e2f2g2f2 | e2_B2c2e2B2G2
F2E2 | G4F4F4E2F2 | G4F4F4
e2f2 | g2e2f2g2e2_B2c2e2 | _B2G2F2E2F2G2
A2B2 | c4C4C4_B,2C2 | E4C4C4

